SVG_Azure_All/Azure Percept Studio.svg

<?xml version="1.0" encoding="UTF-8" standalone="no"?>
<!-- Generated by Microsoft Visio, SVG Export Azure Percept Studio.svg Page-1 -->

<svg
   xmlns:dc="http://purl.org/dc/elements/1.1/"
   xmlns:cc="http://creativecommons.org/ns#"
   xmlns:rdf="http://www.w3.org/1999/02/22-rdf-syntax-ns#"
   xmlns:svg="http://www.w3.org/2000/svg"
   xmlns="http://www.w3.org/2000/svg"
   xmlns:sodipodi="http://sodipodi.sourceforge.net/DTD/sodipodi-0.dtd"
   xmlns:inkscape="http://www.inkscape.org/namespaces/inkscape"
   width="0.8097887in"
   height="0.7597636in"
   viewBox="0 0 58.304596 54.703196"
   xml:space="preserve"
   class="st4"
   version="1.1"
   id="svg35"
   sodipodi:docname="Azure Percept Studio.svg"
   style="font-size:12px;overflow:visible;color-interpolation-filters:sRGB;fill:none;fill-rule:evenodd;stroke-linecap:square;stroke-miterlimit:3"
   inkscape:version="0.92.5 (2060ec1f9f, 2020-04-08)"><metadata
   id="metadata39"><rdf:RDF><cc:Work
       rdf:about=""><dc:format>image/svg+xml</dc:format><dc:type
         rdf:resource="http://purl.org/dc/dcmitype/StillImage" /></cc:Work></rdf:RDF></metadata><sodipodi:namedview
   pagecolor="#ffffff"
   bordercolor="#666666"
   borderopacity="1"
   objecttolerance="10"
   gridtolerance="10"
   guidetolerance="10"
   inkscape:pageopacity="0"
   inkscape:pageshadow="2"
   inkscape:window-width="640"
   inkscape:window-height="480"
   id="namedview37"
   showgrid="false"
   inkscape:zoom="1.4596792"
   inkscape:cx="38.865207"
   inkscape:cy="35.485587"
   inkscape:window-x="0"
   inkscape:window-y="0"
   inkscape:window-maximized="0"
   inkscape:current-layer="svg35" />
	<style
   type="text/css"
   id="style2">
	<![CDATA[
		.st1 {fill:url(#grad0-6);stroke:none;stroke-linecap:butt;stroke-width:32.5406}
		.st2 {fill:#e6e6e6;stroke:none;stroke-linecap:butt;stroke-width:32.5406}
		.st3 {fill:#50e6ff;stroke:none;stroke-linecap:butt;stroke-width:32.5406}
		.st4 {fill:none;fill-rule:evenodd;font-size:12px;overflow:visible;stroke-linecap:square;stroke-miterlimit:3}
	]]>
	</style>

	<defs
   id="Patterns_And_Gradients">
		<linearGradient
   id="grad0-6"
   x1="0"
   y1="69.305842"
   x2="51.491524"
   y2="69.305842"
   gradientTransform="scale(0.99618727,1.0038273)"
   gradientUnits="userSpaceOnUse">
			<stop
   offset="0"
   stop-color="#5ea0ef"
   stop-opacity="1"
   id="stop4" />
			<stop
   offset="0.815"
   stop-color="#0078d4"
   stop-opacity="1"
   id="stop6" />
		</linearGradient>
	</defs>
	<g
   id="g33"
   transform="translate(-32.544427,-32.541101)">
		<title
   id="title10">Page-1</title>
		<g
   id="group7665-1"
   transform="translate(34.1529,-34.0157)">
			<title
   id="title12">Azure Percept Studio</title>
			<g
   id="group7666-2">
				<title
   id="title14">layer1</title>
				<g
   id="shape7667-3"
   transform="translate(3.90191,-1.50754)">
					<title
   id="title16">circle2</title>
					<ellipse
   cx="25.6476"
   cy="95.415398"
   rx="25.6476"
   ry="25.844299"
   class="st1"
   id="ellipse18"
   style="fill:url(#grad0-6);stroke:none;stroke-width:32.54059982;stroke-linecap:butt" />
				</g>
				<g
   id="shape7668-7"
   transform="translate(10.3561)">
					<title
   id="title21">path4-9</title>
					<path
   d="M 19.19,121.26 A 27.3516,27.1435 90 1 1 46.34,93.91 27.381,27.1726 90 0 1 19.19,121.26 Z m 0,-51.69 A 24.3369,24.1516 -90 1 0 43.34,93.91 24.3597,24.1743 -90 0 0 19.19,69.57 Z"
   class="st2"
   id="path23"
   inkscape:connector-curvature="0"
   style="fill:#e6e6e6;stroke:none;stroke-width:32.54059982;stroke-linecap:butt" />
				</g>
				<g
   id="shape7669-9"
   transform="translate(0,-3.1091)">
					<title
   id="title26">path6</title>
					<path
   d="m 46.78,99.37 a 7.80124,7.74186 -90 0 0 -6.72,-7.51 9.83393,9.75909 -90 0 0 -10.04,-9.4 10.0884,10.0116 -90 0 0 -9.59,6.58 9.30537,9.23454 -90 0 0 -8.1,8.96 9.46198,9.38996 -90 0 0 9.72,9.08 c 0.29,0 0.57,0 0.85,-0.04 h 15.72 a 1.4715,1.4603 -90 0 0 0.41,-0.06 7.88933,7.82929 -90 0 0 7.75,-7.61 z M 9.4,97.02 A 5.54668,5.50446 90 1 1 3.89,91.47 5.54668,5.50446 90 0 1 9.4,97.02 Z M 44.78,70.51 a 5.54668,5.50446 -90 1 0 5.5,5.55 5.54668,5.50446 -90 0 0 -5.5,-5.55 z m 0,41.28 a 5.54668,5.50446 -90 1 0 5.5,5.55 5.54668,5.50446 -90 0 0 -5.5,-5.55 z"
   class="st3"
   id="path28"
   inkscape:connector-curvature="0"
   style="fill:#50e6ff;stroke:none;stroke-width:32.54059982;stroke-linecap:butt" />
				</g>
			</g>
		</g>
	</g>
</svg>

<?xml version="1.0" encoding="UTF-8" standalone="no"?>
<!DOCTYPE svg PUBLIC "-//W3C//DTD SVG 1.1//EN" "http://www.w3.org/Graphics/SVG/1.1/DTD/svg11.dtd">
<!-- Generated by Microsoft Visio, SVG Export Azure Percept Studio.svg Page-1 -->
<svg xmlns="http://www.w3.org/2000/svg" xmlns:xlink="http://www.w3.org/1999/xlink" xmlns:ev="http://www.w3.org/2001/xml-events"
		width="1.7137in" height="1.68416in" viewBox="0 0 123.386 121.26" xml:space="preserve" color-interpolation-filters="sRGB"
		class="st4">
	<style type="text/css">
	<![CDATA[
		.st1 {fill:url(#grad0-6);stroke:none;stroke-linecap:butt;stroke-width:32.5406}
		.st2 {fill:#e6e6e6;stroke:none;stroke-linecap:butt;stroke-width:32.5406}
		.st3 {fill:#50e6ff;stroke:none;stroke-linecap:butt;stroke-width:32.5406}
		.st4 {fill:none;fill-rule:evenodd;font-size:12px;overflow:visible;stroke-linecap:square;stroke-miterlimit:3}
	]]>
	</style>

	<defs id="Patterns_And_Gradients">
		<linearGradient id="grad0-6" x1="0" y1="0" x2="1" y2="0" gradientTransform="rotate(90 0.5 0.5)">
			<stop offset="0" stop-color="#5ea0ef" stop-opacity="1"/>
			<stop offset="0.815" stop-color="#0078d4" stop-opacity="1"/>
		</linearGradient>
	</defs>
	<g>
		<title>Page-1</title>
		<g id="group7492-1" transform="translate(34.1529,-34.0157)">
			<title>Azure Percept Studio</title>
			<g id="group7493-2">
				<title>layer1</title>
				<g id="shape7494-3" transform="translate(3.90191,-1.50754)">
					<title>circle2</title>
					<ellipse cx="25.6476" cy="95.4154" rx="25.6476" ry="25.8443" class="st1"/>
				</g>
				<g id="shape7495-7" transform="translate(10.3561,-2.70006E-13)">
					<title>path4-9</title>
					<path d="M19.19 121.26 A27.3516 27.1435 90 1 1 46.34 93.91 A27.381 27.1726 90 0 1 19.19 121.26 ZM19.19 69.57
								 A24.3369 24.1516 -90 1 0 43.34 93.91 A24.3597 24.1743 -90 0 0 19.19 69.57 Z" class="st2"/>
				</g>
				<g id="shape7496-9" transform="translate(2.83773E-13,-3.1091)">
					<title>path6</title>
					<path d="M46.78 99.37 A7.80124 7.74186 -90 0 0 40.06 91.86 A9.83393 9.75909 -90 0 0 30.02 82.46 A10.0884 10.0116
								 -90 0 0 20.43 89.04 A9.30537 9.23454 -90 0 0 12.33 98 A9.46198 9.38996 -90 0 0 22.05 107.08 C22.34
								 107.08 22.62 107.08 22.9 107.04 L38.62 107.04 A1.4715 1.4603 -90 0 0 39.03 106.98 A7.88933 7.82929
								 -90 0 0 46.78 99.37 L46.78 99.37 ZM9.4 97.02 A5.54668 5.50446 90 1 1 3.89 91.47 A5.54668 5.50446
								 90 0 1 9.4 97.02 ZM44.78 70.51 A5.54668 5.50446 -90 1 0 50.28 76.06 A5.54668 5.50446 -90 0 0 44.78
								 70.51 ZM44.78 111.79 A5.54668 5.50446 -90 1 0 50.28 117.34 A5.54668 5.50446 -90 0 0 44.78 111.79
								 Z" class="st3"/>
				</g>
			</g>
		</g>
	</g>
</svg>
